X: 182
T: Song of Self-reliance
C: Teton Sioux band 1911-1914
N: Derived from sioux177.krn
O: South Dakota, U.S.A.
N: Teton Sioux Music by Frances Densmore, 1918
Z: transcribed to **kern format by Craig Sapp
L: 1/8
M: 3/4
Q: 1/4=58
K: B clef=bass
%%linebreak <none>
F/F2 [I:setbarnb 1]| 
F2>F2F2 | 
D2>D2D2 | 
D2>F2 F D | 
C2-C/ B,/ C C C | 
B,2-B,/ G,/ B, B,3/ G,/ ||  
[M:2/4]F,2B, B, ||  
[M:3/4]B,2-B,/ G,/ B, B,3/ G,/ | 
F, F,F,4 ||  
[M:2/4]F,4 | 
z F, D D | 
D2D F | 
F F (F D) ||  
[M:3/4]C2C C C E | 
C2B, B, B,/ G,/ B, | 
B,> G,F,2B, B, | 
B,2-B,/ G,/ B,B,2 | 
F, F,F,4 | 
F,2z4 |]  



